svgs/sharp-regular/link-simple-slash.svg

<svg xmlns="http://www.w3.org/2000/svg" viewBox="0 0 640 512"><!--! Font Awesome Pro 6.6.0 by @fontawesome - https://fontawesome.com License - https://fontawesome.com/license (Commercial License) Copyright 2024 Fonticons, Inc. --><path d="M48.4 14.8L29.4 .1 0 38 19 52.7 591.5 497.2l19 14.7L639.9 474l-19-14.7-87.5-68C578.2 363 608 313 608 256c0-88.4-71.6-160-160-160l-72 0-24 0 0 48 24 0 72 0c61.9 0 112 50.1 112 112c0 46.3-28.1 86-68.1 103.1L390 280l34 0 24 0 0-48-24 0-95.8 0L214.8 144l49.2 0 24 0 0-48-24 0-72 0c-11.8 0-23.2 1.3-34.3 3.7L48.4 14.8zM70.7 151.7C46.6 179.7 32 216.1 32 256c0 88.4 71.6 160 160 160l72 0 24 0 0-48-24 0-72 0c-61.9 0-112-50.1-112-112c0-28.6 10.7-54.8 28.4-74.6L70.7 151.7z"/></svg>

<svg xmlns="http://www.w3.org/2000/svg" viewBox="0 0 640 512"><!--! Font Awesome Pro 6.4.0 by @fontawesome - https://fontawesome.com License - https://fontawesome.com/license (Commercial License) Copyright 2023 Fonticons, Inc. --><path d="M48.4 14.8L29.4 .1 0 38 19 52.7 591.5 497.2l19 14.7L639.9 474l-19-14.7-87.5-68C578.2 363 608 313 608 256c0-88.4-71.6-160-160-160H376 352v48h24 72c61.9 0 112 50.1 112 112c0 46.3-28.1 86-68.1 103.1L390 280h34 24V232H424 328.2L214.8 144H264h24V96H264 192c-11.8 0-23.2 1.3-34.3 3.7L48.4 14.8zM70.7 151.7C46.6 179.7 32 216.1 32 256c0 88.4 71.6 160 160 160h72 24V368H264 192c-61.9 0-112-50.1-112-112c0-28.6 10.7-54.8 28.4-74.6L70.7 151.7z"/></svg>
